X:3722
T:Dalton Watches. BF13.054
M:6/8
Q:120
S:J.Lishman()MS,c1825,Lakes,Browne Coll.
R:Jig
O:England
A:Lakes
N:Not very distinct on the photocopy.. CGP
Z:vmp.Chris Partington
K:G
D|F3BdB|c2BA2D|G3BdB|A2GF3|!
G3BdB| cdc BdB|e2f gdB|c2BA2G::!
g2ab2a|g2e bge|f2ga2g|f2d afd|!
g2ab2a|g2ed2B|c2e Adf|g3g2d|!
g2ab2a|g2e bge|f2ga2g|f2d afd|!
g2a bgd|edcB2G|c2e dBF|G3G2:|]
